X:390
T: Denis Murphy's Slide
M: 12/8
L: 1/8
R: Slide
Q: 375
K: D
B|A2D FED F2A A2f|g2e f2d e2d Bcd|
A2D FED F2A A2f|a2f efe d3 d2 :|
A|d2e f3 gfe f3|gfe f2d e2d B2c|
d2e f3 gfe f2g|a2f efe d3 d2 :|
